!!!COM: Music21
!!!OTL: polka_God-Rest-Ye-Merry
!!!OMV: polka_God-Rest-Ye-Merry
**kern
*clefG2
*k[f#]
*e:
*M2/4
=1
16b
=
16bLL
16e
32bL
32cc
32b
32aJJJ
4ryy
=
16gLL
16f#
16e
32eL
32dJJJ
4ryy
=
16eLL
32eL
32f#J
16g
16aJJ
4ryy
=
16bLL
16ee
32ddL
32ee
32dd
32aJJJ
4ryy
=
16bLL
16e
32bL
32cc
32b
32aJJJ
4ryy
=
16gLL
16f#
16e
32eL
32f#JJJ
4ryy
!!linebreak:original
=
16gLL
16b
32aL
32gJ
16f#JJ
4ryy
=
8eL
16eJk
4ryy
16ryy
=||
*M2/4
16b
=
16bLL
16e
32bL
32cc
32b
32aJJJ
4ryy
=
16gLL
16f#
16e
32eL
32dJJJ
4ryy
=
16eLL
32eL
32f#J
16g
16aJJ
4ryy
=
16bLL
16ee
32ddL
32ee
32dd
32aJJJ
4ryy
!!linebreak:original
=
16bLL
16e
32bL
32cc
32b
32aJJJ
4ryy
=
16gLL
16f#
16e
32eL
32f#JJJ
4ryy
=
16gLL
16b
32aL
32gJ
16f#JJ
4ryy
=
8eL
16eJk
4ryy
16ryy
=||
32bLLL
32bJJJ
4..ryy
=
16ccLL
16a
16b
16ccJJ
4ryy
=
16ddLL
32eeL
32ddJ
16.b
32aJJk
4ryy
!!linebreak:original
=
16gLL
16b
32eL
32f#J
16gJJ
4ryy
=
16aLL
16d
16f#
16aJJ
4ryy
=
16bLL
16e
32bL
32cc
32b
32aJJJ
4ryy
=
16gLL
16f#
16e
32eL
32f#JJJ
4ryy
=
16gLL
16b
32aL
32gJ
16f#JJ
4ryy
=
8eL
16eJk
4ryy
16ryy
=||
32bLLL
32bJJJ
4..ryy
!!linebreak:original
=
16ccLL
16a
16b
16ccJJ
4ryy
=
16ddLL
32eeL
32ddJ
16.b
32aJJk
4ryy
=
16gLL
16b
32eL
32f#J
16gJJ
4ryy
=
16aLL
16d
16f#
16aJJ
4ryy
=
16bLL
16e
32bL
32cc
32b
32aJJJ
4ryy
=
16gLL
16f#
16e
32eL
32f#JJJ
4ryy
=
16gLL
16b
32aL
32gJ
16f#JJ
4ryy
!!linebreak:original
=
8eL
16eJk
4ryy
16ryy
=||
*-
